X:1
T:Allegro moderato
T:Allegro moderato
T:Sonata Quarta à 2 
T: from "La Cetra" Op. 18 No. 4 (Venice 1763) adapted for Flute, Bassoon and Cello 
T:Giovanni Legrenzi (1626-1690) interpr. Felix Scharpf 
T:twoflutes 2020 / Felix Scharpf / https://commons.wikimedia.org/wiki/File:Legrenzi.jpg
T:twoflutes 2020 / Felix Scharpf / https://commons.wikimedia.org/wiki/File:Legrenzi.jpg
T:twoflutes 2020 / Felix Scharpf / https://commons.wikimedia.org/wiki/File:Legrenzi.jpg
T:twoflutes 2020 / Felix Scharpf / https://commons.wikimedia.org/wiki/File:Legrenzi.jpg
T:twoflutes 2020 / Felix Scharpf / https://commons.wikimedia.org/wiki/File:Legrenzi.jpg
T:twoflutes 2020 / Felix Scharpf / https://commons.wikimedia.org/wiki/File:Legrenzi.jpg
T:twoflutes 2020 / Felix Scharpf / https://commons.wikimedia.org/wiki/File:Legrenzi.jpg
T:twoflutes 2020 / Felix Scharpf / https://commons.wikimedia.org/wiki/File:Legrenzi.jpg
C:Giovanni Legrenzi (1626-1690)
Z:twoflutes 2020 / Felix Scharpf / https://commons.wikimedia.org/wiki/File:Legrenzi.jpg
%%score [ 1 2 3 ]
L:1/8
Q:1/4=120
M:4/4
K:G
V:1 treble nm="Flöte"
V:2 bass nm="Bassoon"
V:3 bass nm="Violoncello"
V:1
"^Allegro moderato" z!mf! A/B/ .c(d/e/) .c.A (a2 | ^g2 .a)(g/a/) .=f.e.c.A | %2
 e2 .f(g/a/) (g>a)(g>f) | e4 z4 | z4 z2 .f(g/a/) | g4 .a(b/c'/) .f.a | %6
 .^d.f .B(^c/d/) e2 z .e/.e/ | .e(f/g/) .f.a .^d.e.e.d | e2 .b(c'/d'/) c'4 | %9
 .^g(a/b/) .e.g .c.e .A(B/c/) | d4 z4 | .c'(d'/e'/) .a.c' .=f.a .d(e/f/) | %12
 .B.c B2 .A(A/B/) .cd/e/ | .c.A z2 z (c/d/) .e(=f/g/) | .e.c z2 z4 | z4 z2 .a(b/c'/) | b4 z4 | %17
 z (c/d/) .e(=f/g/) .e.c (c'2 | b2 .c')(b/c'/) .a.g.e.c | g2 .d(e/=f/) (e>f)(e>d) | %20
 c4 z (G/A/) .B(c/d/) | .B.G (g2 =f2) .d.^c | d2 .d(e/=f/) .e(A/B/) .c(d/e/) | %23
 .c.A (a2 ^g2) .a(g/a/) | .=f.e.c.A e4 | z2 .f(^g/a/) g4 | z4 .d(e/=f/) .B.e | %27
 .^G.B .E(F/G/) A2 z .A/.A/ | .A(B/c/) .B.d .^G.A.A.G | A4 z4 | .^g(a/b/) .e.g .c.e .A(B/c/) | %31
 d4 z4 | .c'(d'/e'/) .a.c' .=f.a .d(e/f/) | .B.c B2"_cresc." .c(d/e/) .A.c | %34
 =F2 .d(e/=f/) .B.d G2 | .e(=f/g/) .c.e A2 .f(g/a/) | .d.=f B2 .g(a/b/) .e.a | %37
 .c"_dim.".e .A(B/c/) d2 .d(e/=f/) | .B.d .^G(A/B/) .c.c!>(! B>B!>)! | %39
 A2!p![Q:1/4=80] .^G"_dim."(A/B/)[Q:1/4=60] .c.c[Q:1/4=40] B>B |[Q:1/4=80]!>(! A8!>)! || %41
[M:3/2][Q:1/2=80]"^Adagio" z8!p! a4 | c'4 =f4 z4 | z8 c4 | =f4 f6 f2 |!<(! =f4 e6 e2!<)! | %46
!mf! d4 g6 g2 | g4 =f6 f2 | e4 a6 a2 |!>(! a4 g6 g2!>)! |!mp! (=f4 e4 d4) |!>(! e4 d6 d2!>)! | %52
 c4!p! a6 a2 | a4 g6 g2 | (=f4 e4 d4) | e4 d6 d2 | c8!f! e4 | g4 c4 z4 | z4 G4 G4 | c4 c6 c2 | %60
 c4 B6 B2 | A4 d6 d2 | d4 c6 c2 | B4 e6 e2 | e4 d6 d2 |!>(! (c4 B4 A4) | B4 A6 A2!>)! | %67
 G4!mp! e6 e2 |!>(! e4 d6 d2!>)! |!p! (c4!>(! B4 A4) | B4 A6 A2!>)! |!pp! G12 || %72
[M:4/4][Q:1/2=160]"^Prestissimo" z8 | z4 z2!f! .E2 | .B2 .e2 .^d2 .B2 | .c2 .A2 .G2 .A2 | %76
 B4 z2 .f2 |!>(! .g2 .e2 .e2 .^d2!>)! | .e2!mp! .E2 .B2 .e2 | d4 z4 | z4 z2!mf! .G2 | %81
 .d2 .g2 .f2 .d2 | .e2 .c2 .B2 .^c2 | d4 z2 .a2 | .b2 .g2 .g2 .f2 | .g2!f! .G2 .d2 .g2 | e4 z4 | %87
 z4 z2 .c2 | .g2 .c'2 .b2 .g2 | .a2 .=f2 .e2 .^f2 | g4 z2 .d2 | .e2 .c2 .c2 .B2 | %92
 c4[Q:1/2=60] z2[Q:1/2=80]!p!"^Adagio" d2- | d2!<(! .g2!<)! .=f2 .e2 | A4 z2!mp! .c'2 | %95
 ._b2 .a2[Q:1/2=30] !fermata!^g4 ||[Q:1/4=96]"^Allegro" z8 | %97
 z/!mf! (f/g/a/) .b/(g/a/b/) .e/(b/a/g/) (f/e/).^d/.^c/ | B2 z/ (B/c/d/) .e2 z/ (e/f/g/) | %99
 a2- a/(g/f/e/ .^d/).f/.d/.f/ B2 | z/ .b/.g/.b/ e2 z/ (e/d/c/) (B/A/).G/.F/ | G2 A2 .B.G F2 | %102
 E4 z/ (B/c/d/) .e2 | z/ (A/c/d/) .e/(c/d/e/) A2 z/ (A/B/c/) | d2 (d/c/B/A/ .^G/).b/.^g/.b/ e2 | %105
 z/ .e/.c/.e/ A2 z/ (a/g/=f/) (e/d/).c/.B/ | (c2 d2) .e.c .B2 || %107
[M:3/4][Q:3/4=80]"^Allegro" (A2 e2 a2 | g2 =f3) .f | e6 | z6 | z2 (d2 g2 | =f2 d2) z2 | z6 | z6 | %115
 z2 (A2 d2 | ^c2 A2) (d2 | _B2 A3) .G | (=F2 G3) ._B | (=F2 E3) .E | D6 | z6 | z2 (a2 c'2 | %123
 b2 a3) .a | ^g6 | z2 (e2 a2 | ^g2 e2 a2 | =f2 e3) .d | c6 | (B4 c2 | d2 e3) .=f | (e2 d3) .c | %132
 (c2 B3) .B |[Q:1/4=80] !fermata!A6 ||[M:4/4]"^Adagio"!>(! (d2 =f2 e2 dc | BE A4 ^G2!>)! | %136
!p! A8) |] %137
V:2
 z8 | z8 | z4 z!mf! (E,/F,/) .G,(A,/B,/) | .G,.E, (E2 ^D2 .E)(D/E/) | .C.B,.G,.E, B,4 | %5
 z2 .B,(C/D/) C4 | z4 .G,(A,/B,/) .E,.G, | .C,.E, .A,,(B,,/C,/) .F,,.E,, B,,2 | %8
 E,,4 z2 .F,(^G,/A,/) | ^G,4 z4 | .D(E/=F/) .B,.D .^G,.B, .E,(F,/G,/) | %11
 A,2 z A,/A,/ .A,(B,/C/) .B,.D | .^G,.A,.A,.G, A,2 .A,,.^G,, | .A,,(A,/B,/) .C(D/E/) .C.A, z2 | %14
 z (C,/D,/) .E,(=F,/G,/) .E,.C, (C2 | B,2 .C)(B,/C/) .A,.G,.E,.C, | %16
 G,2 .D,(E,/=F,/) .E,.C,.G,.G,, | C,2 .C.B, C4 | z4 z2 .A,(B,/C/) | B,4 z (C,/D,/) .E,=F,/G,/ | %20
 .E,.C, (C2 B,2) .G,.F, | G,4 z (D,/E,/) .=F,(G,/A,/) | .=F,.D, (D2 C2) .A,.^G, | A,4 z4 | %24
 z4 z2 .B,(C/D/) | C4 .^G,(A,/B,/) .E,.G, | .C,.E, .A,,(B,,/C,/) D,4 | z4 .C(D/E/) .A,.C | %28
 .=F,.A, .D,(E,/F,/) .B,,.A,,.E,.E,, | .A,(B,/C/) .=F,.A, .D,.F, .B,,(C,/D,/) | E,4 z4 | %31
 .D(E/=F/) .B,.D .^G,.B, .E,(F,/G,/) | A,2 z .A,/.A,/ .A,B,/C/ .B,.D | %33
 .^G,.A,.A,.G,"_cresc." A,2 .=F,(=G,/A,/) | .D,.=F, B,,2 .G,(A,/B,/) .E,.G, | %35
 C,2 .A,(B,/C/) .=F,.A, D,2 | .B,(C/D/) .G,.B, E,2 .C(D/E/) | .A,"_dim.".C =F,2 .D(E/=F/) .B,.D | %38
 .^G,.B, .E,(F,/G,/) .A,.D,!>(!.E,.E,,!>)! | A,,2!p! .E,"_dim."(F,/^G,/) .A,.D,.E,.E,, | %40
!>(! A,,8!>)! ||[M:3/2] z12 | z8!p! A,4 | C4 =F,4 z4 | z8 G,4 |!<(! C4 C6 C2!<)! |!mf! C4 B,6 B,2 | %47
 A,4 D6 D2 | D4 C6 C2 |!>(! B,8 E,4!>)! |!mp! (A,4 G,4 =F,4) |!>(! G,4 G,,6 G,,2!>)! |!p! C,12 | %53
 z8 E,4 | (A,4 G,4 =F,4) | G,4 G,,6 G,,2 | C,12 | z8!f! E,4 | G,4 C,4 z4 | z8 D,4 | G,4 G,6 G,2 | %61
 G,4 F,6 F,2 | E,4 A,6 A,2 | A,4 G,6 G,2 | F,8 B,,4 |!>(! (E,4 D,4 C,4) | D,4 D,,6 D,,2!>)! | %67
!mp! G,,12 | z8!p! B,,4 | (E,4!>(! D,4 C,4) | D,4 D,,6 D,,2!>)! |!pp! G,,12 || %72
[M:4/4] z2!f! .E,2 .B,2 .E2 | .^D2 .B,2 .C2 .A,2 | .G,2 .A,2 B,4 | z8 | z2 .B,2 .C2 .A,2 | %77
!>(! .G,2 .A,2 .B,2 .B,,2!>)! | E,4 z4 | z2!mp! .G,,2!<(! .D,2 .G,2!<)! | .F,2 .D,2 .E,2!mf! .C,2 | %81
 .B,,2 .C,2 D,4 | z8 | z2 .D2 .E2 .C2 | .B,2 .C2 .D2 .D,2 | G,4 z4 | z2!f! .C,2 .G,2 .C2 | %87
 .B,2 .G,2 .A,2 .=F,2 | .E,2 .=F,2 G,4 | z8 | z2 .G,2 .A,2 .=F,2 | .E,2 .=F,2 .G,2 .G,,2 | %92
 C,4 z2!p! G,2- | G,2!<(! .E,2!<)! .A,2 .G,2 | =F,4 z2!mp! .F,2 | .D,2 .^D,2 !fermata!E,4 || %96
 z/!mf! (A,/C/D/) .E/(C/D/E/) .A,/(E/D/C/) (B,/A,/).G,/.F,/ | E,4 z4 | %98
 z/ (B,/^C/^D/) .E2 z/ (E,/F,/G,/) (A,2 | A,/)(G,/F,/E,/) .^D,.E, B,,2 z/ .B,/.G,/.B,/ | %100
 E,2 z/ .E/.C/.E/ A,2 ^D,2 | .E,/(E/D/C/) (B,/A,/).G,/.F,/ .G,.A,.B,.B,, | %102
 !tenuto!E,,/(E,/^G,/A,/) .B,/(G,/A,/B,/) E,2 z/ (E,/F,/G,/) | A,4 z/ (A,/B,/C/) D2- | %104
 D/(C/B,/A,/) .^G,.A, E,2 z/ .E/.C/.E/ | A,2 z/ .A,/.=F,/.A,/ D,2 ^G,,2 | %106
 .A,,/(A,/G,/=F,/) (E,/D,/).C,/.B,,/ .C,.D,.E,.E,, ||[M:3/4] A,,6 | z6 | z2 (G,2 C2 | %110
 B,2 A,3) .A, | G,6 | z2 (A,2 D2 | ^C2) (A,2 D2 | _B,2) A,3 .G, | =F,4 D,2 | A,4 (=F,2 | %117
 G,2 ^C,3) .C, | (D,2 _B,,3) .G,, | (A,,2 G,,3) .A,, | D,,2 (A,2 D2 | C2 B,3) .B, | A,6 | z6 | %124
 z2 (B,2 E2 | C2 A,2) z2 | z6 | z6 | z2 (E,2 A,2 | ^G,2 E,2 A,2 | =F,2 E,3) .D, | (C,2 D,3) .D, | %132
 (E,2 E,,3) .E,, | !fermata!A,,6 ||[M:4/4]!>(! (=F,2 D,2 C,2 D,2 | E,2 C,A,, E,4!>)! |!p! A,,8) |] %137
V:3
 A,,2 (A,^G,) A,2 =F,2 | E,2 C,2 (D,E,) =F,2 | E,2 A,,2 E,2 B,,2 | E,2 C,2 B,,2 G,,2 | %4
 (A,,B,,) C,2 B,,2 ^D,2 | E,4 A,,4 | B,,4 G,2 E,2 | C,2 A,,2 (F,,E,,) B,,2 | E,4 A,2 A,,2 | %9
 E,4 A,4 | D,4 E,4 | C,4 D,4 | E,4 A,,3 ^G,, | .A,, A,2 ^G, A,2 (CB,) | C2 G,2 C,2 A,,2 | %15
 G,,2 E,2 (=F,G,) A,2 | G,2 B,,2 C,2 G,,2 | C,2 (CB,) C2 A,2 | G,2 E,2 (F,G,) A,2 | %19
 G,2 B,,2 C,2 G,,2 | C,2 A,,2 G,,2 (G,F,) | G,2 E,2 D,2 A,,2 | D,4 A,,2 (A,^G,) | %23
 A,2 =F,2 E,2 C,2 | (D,E,) =F,2 E,2 ^G,2 | A,2 A,,2 E,4 | C,2 A,,2 D,4 | E,4 C,2 A,2 | %28
 =F,2 D,2 (B,,A,,) E,2 | A,2 =F,2 D,2 B,,2 | E,4 A,2 =F,2 | D,2 B,2 ^G,2 E,2 | A,2 =F,2 D,4 | %33
 E,4"_cresc." A,,2 =F,2 | D,2 B,,2 G,2 E,2 | C,2 A,2 =F,2 D,2 | B,2 G,2 E,2 C2 | A,2 =F,2 D,2 B,2 | %38
 ^G,2 E,2 (A,D,)!>(! E,2!>)! | A,,2!p! E,2 (A,D,) E,2 |!>(! A,,8!>)! ||[M:3/2]!p! =F,12 | =F,12 | %43
 =F,8 E,4 | D,4 G,8 | C,8 C4 | C4 B,8 | A,4 D8 | D4 C8 | B,8 E,4 | (A,4 G,4 =F,4) | G,12 | C,8 C4 | %53
 B,8 E,4 | (A,4 G,4 =F,4) | G,4 G,,8 | C,12 | C,12 | C,8 B,,4 | A,,4 D,8 | G,,8 G,4 | G,4 F,8 | %62
 E,4 A,8 | A,4 G,8 | F,8 B,,4 | (E,4 D,4 C,4) | D,12 | G,,8 G,4 | F,8 B,,4 | (E,4!>(! D,4 C,4) | %70
 D,12!>)! |!pp! G,,12 ||[M:4/4] z2!mf! E,2 D,2 C,2 | B,,2 B,2 C2 A,2 | G,2 A,2 B,4 | %75
 E,2 F,2 G,2 C,2 | B,,2 B,2 C2 A,2 | G,2 A,2 B,4 | E,6 C,2 | G,4 F,2 E,2 | D,4 E,2 C,2 | %81
 B,,2 C,2 D,4 | G,2 A,2 G,2 E,2 | D,2 D2 E2 C2 | B,2 C2 D2 D,2 | G,6 B,,2 | C,4 B,,2 A,,2 | %87
 G,,2 G,2 A,2 =F,2 | E,2 =F,2 G,4 | C2 D2 C2 A,2 | G,4 A,2 =F,2 | E,2 =F,2 G,4 | C,4 z2!p! G,2- | %93
 G,2!>(! .E,2 .A,2 .G,2 | =F,4!>)! z2!mp! .F,2 | .D,2 .^D,2 !fermata!E,4 ||!mf! A,,3 B,, C,2 D,2 | %97
 E,3 F, G,2 A,2 | B,2 G,2 E,2 C,2 | A,,2 B,,C, B,,4 | E,4 A,2 ^D,2 | E,2 F,2 .G,.A,.B,.B,, | %102
 E,3 F, ^G,2 E,2 | A,2 A,,B,, C,2 =F,2 | D,2 E,=F, E,4 | A,4 D,2 ^G,,2 | A,,2 B,,2 .C,.D, E,2 || %107
[M:3/4] A,,6 | E,4 D,2 | C,6 | G,2 D,4 | G,6 | D,6 | A,4 =F,2 | G,2 ^C,4 | D,6 | A,4 =F,2 | %117
 G,2 ^C,4 | D,2 _B,,3 G,, | A,,6 | D,6 | A,4 ^G,2 | A,6 | (D,2 E,2 =F,2) | E,6 | A,6 | E,4 C,2 | %127
 D,2 ^G,,4 | A,,6 | E,4 A,2 | =F,2 E,3 D, | C,2 D,4 | E,2- E,4 | !fermata!A,,6 || %134
[M:4/4]!>(! (=F,2 D,2 C,2 D,2 | E,8!>)! |!p! A,,8) |] %137

